X:1
T:Drifting
T:Drifting
T:Bentley DeForest Ackley
T:Eliza Edmunds Hewitt, 1917
T:Public Domain Courtesy of the Cyber Hymnal™
C:Bentley DeForest Ackley
Z:Public Domain
Z:Courtesy of the Cyber Hymnal™
%%score 1 ( 2 3 )
L:1/8
Q:1/4=120
M:6/4
K:F
V:1 treble 
V:2 bass 
V:3 bass 
V:1
"^Duet" A4 A2 B2 A2 F2 | A4 G2 F6 | F4 F2 G2 F2 D2 | D4 =B,2 C6 | E4 F2 G2 F2 G2 | %5
w: 1.~Drift- ing care- less- ly|with the tide,|Drift- ing o- ver the|wa- ters wide,|With no cap- tain your|
w: 2.~Drift- ing al- most up-|on the bar,|Los- ing sight of the|bea- con star;|From the ha- ven of|
w: 3.~Drift- ing on, with no|shore in view,|Think not skies will be|al- ways blue;|Storm and ship- wreck will|
w: 4.~Drift no long- er! let|Je- sus save,|Let Him guide you a-|cross the wave,|Lest you sink in a|
 A4 A2 (B2 F2 G2) | A4 ^G2 A2 F2 =G2 | F12 ||"^Refrain" G2 G2 z2 D2 F z B2 | A4 A2 F6 | %10
w: course to guide, * *|Drift- ing o- ver life’s|sea.|||
w: joy a- far, * *|Drift- ing o- ver life’s|sea.|Drift- ing, drift- ing, no|port in sight!|
w: come to you, * *|Drift- ing o- ver life’s|sea.|||
w: sin- ner’s grave, * *|Drift- ing o- ver life’s|sea.|||
 A4 G2 D2 E2 F2 | A4 G2 (E4 D2) | C2 D2 C2 C2 D2 C2 | (F2 A2) c2 (B2 F2 G2) x2 | A4 ^G2 A2 F2 =G2 | %15
w: |||||
w: Drift- ing far from the|Gos- pel light; *|Lest you go down in the|storm- * y night; * *|Drift- ing o- ver life’s|
w: |||||
w: |||||
 F12 |] %16
w: |
w: sea.|
w: |
w: |
V:2
 C4 C2 D2 C2 A,2 | C4 [E,B,]2 [F,A,]6 | D4 D2 D2 D2 B,2 | B,4 ^G,2 [F,,D,A,]6 | %4
 G,4 A,2 [C,B,]2 [D,A,]2 [E,B,]2 | C2 F2 [F,,_E]2 (D4 _D2) | [C,C]4 [_D,=B,]2 C2 A,2 [C,_B,]2 | %7
 A,12 || D2 D2 z2 B,2 D z D2 | C4 C2 [F,A,]6 | [G,,=B,]4 [D,B,]2 [F,B,]2 [E,B,]2 [D,B,]2 | %11
 [C,C]4 [E,B,]2 B,6 | A,2 A,2 A,2 B,2 B,2 B,2 | (A,2 C2) [A,,_E]2 D4 (z2 _D2) | %14
 [C,C]4 [_D,=B,]2 C2 A,2 [C,,_B,]2 | [F,,F,A,]12 |] %16
V:3
 F,6- F,6 | C,2 D,2 x8 | B,,6 B,6 | F,6 x6 | C,6 x6 | F,4 B,,6 x2 | x6 C,4 x2 | %7
 (F,,2 A,,2 C,2 F,6) || B,,4 B,,6 x2 | F,,6 x6 | x12 | x6 (G,4 E,2) | F,6 G,6 | A,4 C,2 B,4 x4 | %14
 x6 C,4 x2 | x12 |] %16

